htdocs/wp-content/themes/syopajatyo/dist/svg/twitch.svg

<!-- Generated by IcoMoon.io -->
<svg version="1.1" xmlns="http://www.w3.org/2000/svg" width="32" height="32" viewBox="0 0 32 32">
<title>twitch</title>
<path d="M16 7.75v7.75h-2.589v-7.75h2.589zM23.107 7.75v7.75h-2.589v-7.75h2.589zM23.107 21.321l4.518-4.536v-14.196h-21.321v18.732h5.821v3.875l3.875-3.875h7.107zM30.214 0v18.089l-7.75 7.75h-5.821l-3.875 3.875h-3.875v-3.875h-7.107v-20.679l1.946-5.161h26.482z"></path>
</svg>

<svg version="1.1" xmlns="http://www.w3.org/2000/svg" width="32" height="32" viewBox="0 0 32 32" class="svg" focusable="false" aria-hidden="true" role="img"><path d="M16 7.75v7.75h-2.589V7.75H16zm7.107 0v7.75h-2.589V7.75h2.589zm0 13.571l4.518-4.536V2.589H6.304v18.732h5.821v3.875L16 21.321h7.107zM30.214 0v18.089l-7.75 7.75h-5.821l-3.875 3.875H8.893v-3.875H1.786V5.16L3.732-.001h26.482z"/></svg>
